X: 3244
T: Behind The Bush In The Garden
R: jig
M: 6/8
K: Aminor
|:cd/c/A AGE|cd/c/A AGE|c2E EDE|G3 GAB|
c2d e2a-|age ded|cd/c/A AGE|A3 A2B:|
|:c2A Acd|eag e2d|c2A Acd|e3 GAB|
c2d e2a-|age ded|cd/c/A AGE|A3 A2B:|

